dist/img/skills/basic/sass.svg

<svg width="128" height="128" viewBox="0 0 128 128" fill="none" xmlns="http://www.w3.org/2000/svg">
<g opacity="0.32">
<path d="M58.4999 14.855C52.7962 14.855 46.7757 15.9226 41.0849 17.945C34.2701 20.3667 21.3854 25.7892 11.6549 34.89C1.77581 44.1316 -0.661347 53.0221 0.349853 58.265C2.24681 68.0903 11.6916 74.8165 18.8699 79.765C13.627 82.9752 7.93081 87.3968 5.64985 92.44C3.49689 97.1965 3.38205 102.095 5.31485 106.235C6.75869 109.325 9.22441 111.617 11.9099 112.365C13.7684 112.882 15.6896 113.145 17.6199 113.145C25.2435 113.145 32.7646 108.984 37.2549 102.29C37.9281 101.286 38.5082 100.243 39.0049 99.175C39.2788 99.5001 39.563 99.8085 39.8549 100.085C42.3048 102.407 45.2249 102.405 46.1849 102.405C49.1442 102.405 51.2271 101.122 52.7299 99.53C53.9843 100.365 55.4601 100.81 57.0499 100.81C57.2419 100.81 57.4404 100.808 57.6299 100.785C60.8119 100.396 64.2449 97.29 64.2449 97.29C64.378 97.4052 64.5115 97.5125 64.6549 97.62C66.0065 98.6389 67.7071 99.135 69.8499 99.135C70.2057 99.135 70.5737 99.1256 70.9449 99.1C73.5637 98.9233 75.5382 98.2972 76.7799 97.775C78.0291 97.3193 79.8375 96.5136 81.6449 95.185C82.0826 94.8624 82.5007 94.5234 82.8899 94.165C83.686 94.6488 84.5845 94.9979 85.5599 95.195C86.036 95.2923 86.5329 95.34 87.0449 95.34C88.3914 95.34 89.8488 95.0108 91.4949 94.335C92.8312 93.8742 94.7597 93.0481 96.6849 91.635C101.144 88.3556 103.314 84.4581 103.13 80.06C103.125 79.9243 103.115 79.7882 103.105 79.65C103.763 79.5783 104.443 79.545 105.145 79.545C106.013 79.545 106.928 79.6025 107.86 79.71C113.965 80.4242 115.278 83.3051 115.255 84.26C115.216 84.5109 114.782 84.9141 114.375 85.165C111.792 86.7624 110.717 88.8365 111.175 91.33C111.664 94.0282 113.93 95.92 116.685 95.92C117.21 95.92 117.668 95.854 118.05 95.79C121.324 95.237 127.563 91.1737 127.85 83.87C128.019 79.6306 126.282 75.2929 123.09 71.97C119.078 67.7972 113.196 65.5 106.525 65.5H106.37C103.615 65.5153 100.94 65.8928 98.3699 66.625L98.2898 66.045C98.1337 64.9467 98.0744 64.5349 98.1999 63.58C98.3125 62.7224 98.8364 61.1725 99.0899 60.425C99.4457 59.3805 99.7045 58.6261 99.6149 57.51C99.4408 55.3314 97.6304 51.6309 91.9548 51.59H91.9349H91.7949C86.7516 51.59 83.6357 53.0547 82.5349 55.945C82.3966 56.3059 82.2338 56.7821 82.0648 57.33C80.8873 56.0909 78.9953 55.1155 76.0948 55.095H76.0749H75.9299C75.3283 55.095 74.7551 55.119 74.2099 55.16C81.4854 48.4195 86.1227 38.7399 83.7598 29.465C81.4635 20.4538 71.7837 14.855 58.4999 14.855ZM58.4949 19.95C68.7093 19.95 77.0558 23.7693 78.8298 30.73C81.4257 40.9085 72.5851 53.0824 61.2699 57.46C55.3895 59.7358 50.1003 60.475 46.0299 60.475C43.1089 60.475 40.8135 60.091 39.3798 59.62C35.4784 58.34 33.1879 55.7715 32.6299 54.32C32.4123 53.7517 32.0334 52.7952 32.6299 52.465C32.7323 52.4087 32.8203 52.37 32.9099 52.37C33.1454 52.37 33.4209 52.6117 34.1249 53.39C34.9415 54.2911 37.9206 56.52 43.4349 56.52C44.2105 56.52 45.0418 56.4798 45.9199 56.38C64.5951 54.2859 75.8431 39.773 72.2898 31.965C70.9843 29.0978 66.4034 27.06 59.7449 27.06C53.7109 27.06 45.9703 28.7376 37.4199 33C15.4653 43.9389 14.2767 52.9547 14.0899 56.38C13.5753 65.8008 25.7159 70.7607 32.2849 77.77C32.3719 77.8621 32.4554 77.9528 32.5399 78.045C33.7712 77.3666 35.0675 76.6539 36.3399 75.955C39.6525 74.1348 42.7707 72.4286 44.2299 71.635C46.5415 68.2763 51.238 64.57 54.6249 64.57C60.0418 64.57 58.1749 72.35 58.1749 72.35C58.1749 72.35 58.2864 71.9875 58.4349 71.985C58.5526 71.9824 58.933 71.38 59.8649 71.38C60.1439 71.38 60.4683 71.4342 60.8549 71.575C62.5752 72.2047 62.1846 73.4121 62.1949 73.535C62.2153 73.7731 60.1649 80.6911 59.3099 85.125C58.9028 87.2395 59.1395 88.78 59.2599 88.78C59.4288 88.78 59.7699 88.2385 60.0899 87.66L60.0849 87.645C60.0849 87.645 60.3229 87.2109 60.7249 86.425C60.7761 86.32 60.8049 86.255 60.8049 86.255L60.8099 86.26C61.2809 85.3333 61.9444 83.977 62.7099 82.29C64.2126 78.9773 69.9484 66.1957 70.4349 64.78C70.9212 63.3643 71.1768 61.8996 71.4148 61.275C71.6504 60.6606 73.6081 60.195 75.9249 60.195H76.0499C78.4204 60.2129 78.6569 61.2201 78.6749 61.43C78.6928 61.6399 77.546 64.4435 77.2849 66.425C77.0237 68.4064 77.2748 69.401 77.4899 71.065C77.6332 72.1555 78.3136 73.5358 79.1149 75.1C81.5648 71.091 85.8826 63.4228 86.2999 61.275C86.584 59.8081 87.0418 58.3996 87.2799 57.775C87.5154 57.1606 89.4756 56.69 91.7898 56.69H91.9099C94.2804 56.7079 94.5219 57.7201 94.5398 57.93C94.5578 58.1399 93.411 60.9435 93.1498 62.925C92.8887 64.9064 93.1398 65.896 93.3549 67.56C93.5392 68.9833 94.6443 70.904 95.7348 73.08C98.7173 71.6105 102.276 70.6205 106.385 70.6H106.515C117.059 70.6 123.006 77.4464 122.76 83.68C122.576 88.6003 118.05 90.6316 117.21 90.775C117.005 90.8108 116.828 90.835 116.685 90.835C116.401 90.835 116.239 90.7324 116.18 90.415C116.118 90.0847 116.338 89.9329 117.055 89.49C117.772 89.0471 119.913 87.5776 120.295 84.905C120.679 82.2323 118.672 75.8505 108.45 74.655C107.288 74.5193 106.189 74.46 105.145 74.46C101.912 74.46 99.2385 75.0636 97.0548 75.975C97.5925 77.3651 97.9884 78.8108 98.0499 80.27C98.183 83.4751 95.9687 85.8428 93.6699 87.535C92.331 88.5206 90.8928 89.1782 89.6999 89.575C88.9011 89.9129 87.8845 90.255 87.0449 90.255C86.8759 90.255 86.7159 90.2407 86.5648 90.21C84.5706 89.8081 83.508 88.039 84.8649 84.135C85.5996 82.023 87.7125 78.8049 91.1199 76.035C90.3416 74.435 89.4752 72.805 89.0349 71.31C88.167 68.3583 87.8998 66.575 87.8998 66.575C87.8998 66.575 85.0848 72.3982 81.4599 77.7C81.2499 78.0072 81.0422 78.3055 80.8349 78.605C81.5465 80.2562 82.1106 82.0086 82.1849 83.775C82.318 86.9775 80.9287 89.3978 78.6299 91.09C77.3831 92.0065 76.0566 92.6405 74.9148 93.045C74.1827 93.3624 72.7017 93.8816 70.5948 94.025C70.3414 94.0429 70.0906 94.055 69.8448 94.055C68.977 94.055 68.1963 93.9311 67.7099 93.565C66.8574 92.925 66.7545 92.1254 67.1949 91.04C67.5686 90.1184 70.3599 86.9279 72.7048 84.135C73.35 83.3644 73.9695 82.5796 74.5199 81.85C74.5122 81.8321 74.5098 81.82 74.5098 81.82C74.5098 81.82 74.9337 81.2724 75.6249 80.315C74.7698 78.4743 73.6819 76.5507 73.1699 74.815C72.302 71.8633 72.0398 70.075 72.0398 70.075C72.0398 70.075 69.1895 77.3809 66.2198 83.21C63.921 87.7233 62.3861 90.4593 61.6949 91.66C61.6897 91.6907 61.6849 91.705 61.6849 91.705C61.6849 91.705 61.5841 91.8811 61.4049 92.155C61.3178 92.3035 61.2749 92.38 61.2749 92.38C61.2749 92.38 61.2724 92.3702 61.2699 92.36C60.4993 93.4966 58.7676 95.725 57.0499 95.725C52.3292 95.725 54.0649 86.145 54.0649 86.145C54.0649 86.145 52.6863 89.6936 51.1299 92.74C49.8627 95.2232 48.709 97.325 46.1849 97.325C45.4553 97.325 44.3073 97.3012 43.3499 96.395C41.1815 94.3367 39.5247 89.1098 39.8499 85.065C40.1263 81.6218 40.6554 79.2391 41.3799 77.25C40.0819 77.9565 38.5881 78.7915 37.0649 79.685C36.2841 80.1432 35.498 80.6093 34.7249 81.065C34.7505 81.1111 34.7768 81.1589 34.7999 81.205C36.7403 84.9528 37.2514 93.1573 33.0249 99.46C29.597 104.572 23.7819 108.065 17.6149 108.065C16.1761 108.065 14.7188 107.874 13.2699 107.47C10.7969 106.781 7.05681 101.667 10.2799 94.54C13.1215 88.2577 24.4822 82.3097 27.4749 80.83C27.7257 80.6917 28.0055 80.5413 28.2999 80.38C22.3325 75.1601 7.42381 68.121 5.33485 57.305C4.74605 54.2611 6.17265 46.9736 15.1199 38.605C22.6437 31.5675 33.1133 26.1805 42.7799 22.745C48.1021 20.8531 53.5182 19.95 58.4949 19.95ZM59.7549 32.135C65.2076 32.135 67.4313 33.7183 67.6898 34.11C68.0482 34.9036 67.9673 36.6753 66.5849 39.115C63.6229 44.3374 55.9096 50.1373 45.3599 51.32C44.7019 51.3942 44.0593 51.43 43.4449 51.43C39.4999 51.43 37.8602 49.9253 37.8449 49.91C36.9284 48.8962 35.4594 47.2775 32.9199 47.275C31.9727 47.275 31.0504 47.5236 30.1749 48.01C29.4299 48.4221 25.8191 50.7493 27.8799 56.11C28.9986 59.0181 32.493 62.7092 37.7999 64.45C39.2181 64.9159 40.9551 65.2409 42.8649 65.415C42.0917 66.183 41.406 66.9577 40.8249 67.695C39.1737 68.5961 36.6007 70.0052 33.8999 71.49L33.3899 71.765C31.7387 70.3109 29.9777 68.9611 28.2549 67.635C22.6433 63.3188 18.9803 60.2212 19.1749 56.65C19.587 49.1031 30.5608 42.0917 39.6949 37.54C46.6888 34.0558 53.8131 32.135 59.7549 32.135ZM66.2699 60.77C66.2263 60.9364 66.1884 61.1083 66.1449 61.285C65.9989 61.8738 65.8345 62.5364 65.6348 63.115C65.4659 63.5758 64.7568 65.2151 63.8199 67.345C63.6765 67.2631 63.5309 67.1867 63.3799 67.115C63.1239 65.6251 62.5861 64.0936 61.5749 62.765C62.0817 62.5858 62.5902 62.3947 63.1099 62.195C64.1748 61.7828 65.2305 61.3076 66.2699 60.77ZM54.5099 69.165C53.6292 69.165 52.2011 69.9326 50.8699 71.42C49.723 72.7051 47.7688 76.0151 46.8549 78.785C45.0373 84.289 45.8196 89.8821 47.1099 90.22C47.1483 90.2302 47.1915 90.235 47.2299 90.235C48.7403 90.235 51.113 83.1806 52.2599 80.38C52.9997 78.5777 55.8746 70.5825 55.2449 69.515C55.1066 69.282 54.8503 69.165 54.5099 69.165ZM92.7499 78.23C90.8401 79.917 89.7411 81.6854 89.2598 82.735C88.0336 85.4076 87.9736 86.2637 88.3448 86.53C90.1292 85.89 93.0742 84.3444 93.0999 80.21C93.105 79.5905 92.9726 78.9237 92.7499 78.23ZM31.0999 82.785C30.9155 82.8925 30.7438 82.9976 30.5749 83.1V83.105C30.5749 83.105 30.4958 83.1505 30.3499 83.235C29.4692 83.7623 28.7414 84.198 28.2499 84.495C26.0815 85.8492 22.8117 88.0515 20.2799 90.44C16.125 94.3593 15.2535 99.8002 17.4449 101.07C17.9133 101.341 18.5307 101.475 19.2399 101.475C21.5951 101.475 24.9863 99.994 27.5899 97.155C31.1431 93.2766 32.6103 88.3632 31.0999 82.785ZM77.2299 83.425C76.4926 84.3927 75.8135 85.2529 75.2299 85.98C74.2263 87.2293 71.6749 89.97 71.6749 89.97C71.6749 89.97 71.3137 90.3128 71.4698 90.405C71.521 90.4357 71.5856 90.45 71.6599 90.45C71.903 90.45 72.2608 90.3047 72.6449 90.105C74.0605 89.2141 77.2322 86.997 77.2399 83.71C77.2399 83.6153 77.2375 83.5223 77.2299 83.425Z" fill="#F8F8FF"/>
</g>
</svg>

<svg width="128" height="128" fill="none" xmlns="http://www.w3.org/2000/svg"><path d="M58.5 14.855c-5.704 0-11.724 1.068-17.415 3.09-6.815 2.422-19.7 7.844-29.43 16.945C1.775 44.132-.661 53.022.35 58.265c1.897 9.825 11.342 16.552 18.52 21.5-5.243 3.21-10.94 7.632-13.22 12.675-2.153 4.757-2.268 9.655-.335 13.795 1.444 3.09 3.91 5.382 6.595 6.13 1.858.517 3.78.78 5.71.78 7.623 0 15.145-4.161 19.635-10.855a23.007 23.007 0 001.75-3.115c.274.325.558.633.85.91 2.45 2.322 5.37 2.32 6.33 2.32 2.96 0 5.042-1.283 6.545-2.875 1.254.835 2.73 1.28 4.32 1.28.192 0 .39-.002.58-.025 3.182-.389 6.615-3.495 6.615-3.495.133.115.266.222.41.33 1.352 1.019 3.052 1.515 5.195 1.515.356 0 .724-.01 1.095-.035 2.619-.177 4.593-.803 5.835-1.325a19.722 19.722 0 004.865-2.59c.438-.323.856-.662 1.245-1.02a8.282 8.282 0 002.67 1.03c.476.097.973.145 1.485.145 1.346 0 2.804-.33 4.45-1.005a19.717 19.717 0 005.19-2.7c4.459-3.28 6.629-7.177 6.445-11.575-.005-.136-.015-.272-.025-.41a18.84 18.84 0 012.04-.105c.868 0 1.783.058 2.715.165 6.105.714 7.418 3.595 7.395 4.55-.039.25-.473.654-.88.905-2.583 1.597-3.658 3.671-3.2 6.165.489 2.698 2.755 4.59 5.51 4.59a8.08 8.08 0 001.365-.13c3.274-.553 9.513-4.616 9.8-11.92.169-4.24-1.568-8.577-4.76-11.9-4.012-4.173-9.894-6.47-16.565-6.47h-.155a29.71 29.71 0 00-8 1.125l-.08-.58c-.156-1.098-.216-1.51-.09-2.465.112-.858.636-2.407.89-3.155.356-1.044.614-1.799.525-2.915-.174-2.179-1.985-5.88-7.66-5.92h-.16c-5.043 0-8.16 1.465-9.26 4.355-.138.36-.301.837-.47 1.385-1.178-1.24-3.07-2.215-5.97-2.235h-.165c-.602 0-1.175.024-1.72.065 7.275-6.74 11.913-16.42 9.55-25.695-2.297-9.011-11.976-14.61-25.26-14.61zm-.005 5.095c10.214 0 18.56 3.82 20.335 10.78 2.596 10.178-6.245 22.352-17.56 26.73-5.88 2.276-11.17 3.015-15.24 3.015-2.921 0-5.217-.384-6.65-.855-3.902-1.28-6.192-3.848-6.75-5.3-.218-.568-.597-1.525 0-1.855a.598.598 0 01.28-.095c.235 0 .51.242 1.215 1.02.816.901 3.796 3.13 9.31 3.13.776 0 1.607-.04 2.485-.14 18.675-2.094 29.923-16.607 26.37-24.415-1.306-2.867-5.887-4.905-12.545-4.905-6.034 0-13.775 1.678-22.325 5.94-21.955 10.939-23.143 19.955-23.33 23.38-.515 9.42 11.626 14.38 18.195 21.39.087.092.17.183.255.275a3398.859 3398.859 0 0111.69-6.41c2.312-3.359 7.008-7.065 10.395-7.065 5.417 0 3.55 7.78 3.55 7.78s.111-.362.26-.365c.118-.003.498-.605 1.43-.605.279 0 .603.054.99.195 1.72.63 1.33 1.837 1.34 1.96.02.238-2.03 7.156-2.885 11.59-.407 2.115-.17 3.655-.05 3.655.169 0 .51-.541.83-1.12l-.005-.015s.238-.434.64-1.22c.051-.105.08-.17.08-.17l.005.005a101.22 101.22 0 001.9-3.97c1.503-3.313 7.238-16.094 7.725-17.51.486-1.416.742-2.88.98-3.505.235-.614 2.193-1.08 4.51-1.08h.125c2.37.018 2.607 1.025 2.625 1.235.018.21-1.129 3.014-1.39 4.995-.261 1.981-.01 2.976.205 4.64.143 1.09.824 2.47 1.625 4.035 2.45-4.009 6.768-11.677 7.185-13.825.284-1.467.742-2.875.98-3.5.235-.614 2.196-1.085 4.51-1.085h.12c2.37.018 2.612 1.03 2.63 1.24.018.21-1.129 3.014-1.39 4.995-.261 1.981-.01 2.971.205 4.635.184 1.423 1.29 3.344 2.38 5.52 2.982-1.47 6.541-2.46 10.65-2.48h.13c10.544 0 16.491 6.846 16.245 13.08-.184 4.92-4.71 6.952-5.55 7.095a3.24 3.24 0 01-.525.06c-.284 0-.446-.103-.505-.42-.062-.33.158-.482.875-.925.717-.443 2.858-1.912 3.24-4.585.384-2.673-1.623-9.055-11.845-10.25a28.431 28.431 0 00-3.305-.195c-3.233 0-5.906.604-8.09 1.515.537 1.39.933 2.836.995 4.295.133 3.205-2.081 5.573-4.38 7.265a14.553 14.553 0 01-3.97 2.04c-.799.338-1.816.68-2.655.68a2.41 2.41 0 01-.48-.045c-1.994-.402-3.057-2.171-1.7-6.075.735-2.112 2.848-5.33 6.255-8.1-.778-1.6-1.645-3.23-2.085-4.725-.868-2.952-1.135-4.735-1.135-4.735s-2.815 5.823-6.44 11.125c-.21.307-.418.605-.625.905.712 1.651 1.276 3.404 1.35 5.17.133 3.203-1.256 5.623-3.555 7.315a14.56 14.56 0 01-3.715 1.955c-.732.317-2.213.837-4.32.98-.254.018-.504.03-.75.03-.868 0-1.649-.124-2.135-.49-.853-.64-.956-1.44-.515-2.525.374-.922 3.165-4.112 5.51-6.905a58.23 58.23 0 001.815-2.285.166.166 0 01-.01-.03s.424-.548 1.115-1.505c-.855-1.84-1.943-3.764-2.455-5.5-.868-2.952-1.13-4.74-1.13-4.74s-2.85 7.306-5.82 13.135c-2.299 4.513-3.834 7.25-4.525 8.45-.005.03-.01.045-.01.045s-.1.176-.28.45c-.087.148-.13.225-.13.225l-.005-.02c-.77 1.137-2.502 3.365-4.22 3.365-4.72 0-2.985-9.58-2.985-9.58s-1.379 3.549-2.935 6.595c-1.267 2.483-2.421 4.585-4.945 4.585-.73 0-1.878-.024-2.835-.93-2.169-2.058-3.825-7.285-3.5-11.33.276-3.443.805-5.826 1.53-7.815a156.525 156.525 0 00-4.315 2.435c-.78.458-1.567.924-2.34 1.38.026.046.052.094.075.14 1.94 3.748 2.451 11.952-1.775 18.255-3.428 5.112-9.243 8.605-15.41 8.605-1.439 0-2.896-.191-4.345-.595-2.473-.689-6.213-5.803-2.99-12.93 2.841-6.282 14.202-12.23 17.195-13.71.25-.138.53-.289.825-.45-5.968-5.22-20.876-12.259-22.965-23.075-.589-3.044.838-10.331 9.785-18.7 7.524-7.037 17.993-12.424 27.66-15.86 5.322-1.892 10.738-2.795 15.715-2.795zm1.26 12.185c5.453 0 7.676 1.583 7.935 1.975.358.794.277 2.565-1.105 5.005C63.623 44.337 55.91 50.137 45.36 51.32c-.658.074-1.3.11-1.915.11-3.945 0-5.585-1.505-5.6-1.52-.917-1.014-2.386-2.632-4.925-2.635-.947 0-1.87.249-2.745.735-.745.412-4.356 2.74-2.295 8.1 1.119 2.908 4.613 6.6 9.92 8.34 1.418.466 3.155.79 5.065.965a25.418 25.418 0 00-2.04 2.28c-1.651.901-4.224 2.31-6.925 3.795l-.51.275c-1.651-1.454-3.412-2.804-5.135-4.13-5.612-4.316-9.275-7.414-9.08-10.985.412-7.547 11.386-14.558 20.52-19.11 6.994-3.484 14.118-5.405 20.06-5.405zM66.27 60.77c-.044.166-.082.338-.125.515-.146.589-.31 1.251-.51 1.83-.17.46-.878 2.1-1.815 4.23a6.544 6.544 0 00-.44-.23c-.256-1.49-.794-3.021-1.805-4.35a62.83 62.83 0 001.535-.57 32.118 32.118 0 003.16-1.425zm-11.76 8.395c-.88 0-2.309.768-3.64 2.255-1.147 1.285-3.101 4.595-4.015 7.365-1.818 5.504-1.035 11.097.255 11.435.038.01.081.015.12.015 1.51 0 3.883-7.054 5.03-9.855.74-1.802 3.615-9.797 2.985-10.865-.138-.233-.395-.35-.735-.35zm38.24 9.065c-1.91 1.687-3.009 3.455-3.49 4.505-1.226 2.673-1.286 3.529-.915 3.795 1.784-.64 4.73-2.186 4.755-6.32.005-.62-.127-1.286-.35-1.98zM31.1 82.785c-.184.108-.356.213-.525.315v.005s-.08.045-.225.13c-.88.527-1.609.963-2.1 1.26-2.169 1.354-5.438 3.556-7.97 5.945-4.155 3.92-5.027 9.36-2.835 10.63.468.271 1.086.405 1.795.405 2.355 0 5.746-1.481 8.35-4.32 3.553-3.878 5.02-8.792 3.51-14.37zm46.13.64c-.737.968-1.416 1.828-2 2.555-1.004 1.25-3.555 3.99-3.555 3.99s-.361.343-.205.435c.051.03.116.045.19.045.243 0 .6-.145.985-.345 1.416-.89 4.587-3.108 4.595-6.395 0-.095-.002-.188-.01-.285z" fill="#F8F8FF" opacity=".32"/></svg>
